assets/Desert/Flat/desert_flat.svg

<svg width="32" height="32" viewBox="0 0 32 32" fill="none" xmlns="http://www.w3.org/2000/svg">
<path d="M26.83 2H5.17123C3.42123 2 2.01123 3.41 2.01123 5.16V26.85C2.01123 28.59 3.42123 30.01 5.17123 30.01H26.84C28.58 30.01 30 28.6 30 26.85V5.16C29.99 3.41 28.58 2 26.83 2Z" fill="#F37366"/>
<path d="M30 19.4053C29.947 19.1749 29.7246 19 29.4808 19C29.2012 19 28.9975 19.2041 28.9975 19.4841C28.9975 19.7641 28.7898 20.0039 28.5102 20.0039C28.2306 20.0039 28.0148 19.7641 28.0148 19.4841V17.5108C28.0148 17.1983 27.7634 16.9961 27.4838 16.9961H27.4739C27.1943 16.9961 27.0046 16.7661 27.0046 16.4861V15.51C27.0046 15.23 26.7566 15 26.477 15H24.2885C23.5795 15 23.0004 15.58 23.0004 16.29V17.4944C23.0004 17.7744 22.7907 18.0044 22.5111 18.0044H21.516C21.2364 18.0044 21.0067 18.2344 21.0067 18.5144V19.499C21.0067 19.779 20.7771 20.009 20.4975 20.009H16.5198C16.2402 20.009 16.0296 20.2199 16.0296 20.4999C16.0296 20.7799 15.7999 21.0099 15.5203 21.0099H2.01123V26.85C2.01123 28.59 3.41915 30.01 5.16658 30.01H26.8446C28.5821 30.01 30 28.6 30 26.85V21.74H29.9924L30 20.8701V19.4053Z" fill="#9D5044"/>
<path d="M30 19.406C29.9472 19.1752 29.7243 19 29.4799 19C29.1999 19 28.9958 19.2041 28.9958 19.4841C28.9958 19.7641 28.7878 20.0039 28.5078 20.0039C28.2278 20.0039 28.0117 19.7641 28.0117 19.4841V17.5108C28.0117 17.1983 27.7599 16.9961 27.4799 16.9961H27.47C27.19 16.9961 27 16.7661 27 16.4861V15.51C27 15.23 26.7516 15 26.4716 15H24.9989V17.97C24.9989 18.53 25.42 18.99 25.98 18.99C26.537 18.99 26.995 19.445 27 20.0009C26.995 20.5567 26.537 21.0117 25.98 21.0117H16.65C15.79 21.0117 15.09 21.7117 15.09 22.5717C15.09 23.3317 15.71 24 16.47 24H22.99C24.09 24 24.99 24.9 24.99 26C24.99 27.1 24.09 28 22.99 28H11.79C11.62 28 11.48 28.14 11.48 28.31V30.01H26.84C28.58 30.01 30 28.6 30 26.85V21.74H29.9922L30 20.8507V19.406Z" fill="#B35F47"/>
<path d="M21.6413 4.54002C22.0013 3.80002 23.0613 3.81002 23.4113 4.55002C23.5413 4.83002 23.8813 4.94002 24.1613 4.79002L24.3313 4.70002C24.9913 4.35002 25.7713 4.91002 25.6313 5.64002L25.5913 5.83002C25.5313 6.13002 25.7413 6.42002 26.0513 6.46002L26.2413 6.49002C26.9813 6.59002 27.2813 7.49002 26.7313 8.00002L26.5913 8.13002C26.3613 8.34002 26.3613 8.69002 26.5913 8.90002L26.7313 9.03002C27.2713 9.54002 26.9713 10.44 26.2313 10.54L26.0313 10.56C25.7213 10.6 25.5113 10.88 25.5713 11.18L25.6013 11.37C25.7313 12.1 24.9513 12.65 24.3013 12.3L24.1313 12.21C23.8613 12.06 23.5213 12.17 23.3813 12.45C23.0213 13.19 21.9613 13.18 21.6113 12.44C21.4813 12.16 21.1413 12.05 20.8613 12.2L20.6913 12.29C20.0313 12.64 19.2513 12.08 19.3913 11.35L19.4313 11.16C19.4913 10.86 19.2813 10.57 18.9713 10.53L18.7813 10.5C18.0413 10.4 17.7413 9.50002 18.2913 8.99002L18.4313 8.86002C18.6613 8.65002 18.6613 8.30002 18.4313 8.09002L18.2913 7.96002C17.7513 7.45002 18.0513 6.55002 18.7913 6.45002L18.9813 6.43002C19.2913 6.39002 19.5013 6.11002 19.4413 5.81002L19.4113 5.62002C19.2813 4.89002 20.0613 4.34002 20.7113 4.69002L20.8813 4.78002C21.1713 4.93002 21.5113 4.82002 21.6413 4.54002Z" fill="#FF822D"/>
<path d="M22.5013 11.98C24.4564 11.98 26.0413 10.4175 26.0413 8.49C26.0413 6.56253 24.4564 5 22.5013 5C20.5462 5 18.9613 6.56253 18.9613 8.49C18.9613 10.4175 20.5462 11.98 22.5013 11.98Z" fill="#F9C23C"/>
<path d="M12.3411 30.01V22.3519C13.3514 22.3593 15.2091 22.142 16.4332 21.1899C18.0278 19.9496 18.0147 18.1897 18.0075 17.2289C18.007 17.1683 18.0066 17.1108 18.0066 17.0569V15.2508C18.0066 14.3643 17.2864 13.6774 16.2116 13.6774C15.1367 13.6774 14.4608 14.2203 14.4608 15.2508V17.4225C14.4608 18.6635 13.2863 18.7632 12.9538 18.7632H12.3411V14.2718C12.3411 12.341 10.7759 10.7758 8.84505 10.7758C6.91424 10.7758 5.349 12.341 5.349 14.2718V23.714H4.71695C3.69445 23.714 3.20993 23.1715 3.20993 21.8673V17.6103C3.20993 16.4152 2.32523 15.9735 2.01123 15.9477V26.3958C3.09609 27.0596 4.01892 27.2294 5.349 27.2401V30.01H12.3411Z" fill="#00F397"/>
<path d="M7.87774 15.2884C7.87774 15.0812 7.70985 14.9132 7.50274 14.9132C7.29563 14.9132 7.12774 15.0812 7.12774 15.2884V25.1889C7.12128 25.1886 7.11478 25.1884 7.10824 25.1884H5.6599C4.49361 25.1884 2.91694 24.9488 2.00342 23.5912V24.7361C3.13157 25.7677 4.64258 25.9384 5.6599 25.9384H7.10824C7.11478 25.9384 7.12128 25.9383 7.12774 25.9379V30.01H7.87774V15.2884ZM10.8987 15.2882C10.8987 15.0811 10.7308 14.9132 10.5237 14.9132C10.3166 14.9132 10.1487 15.0811 10.1487 15.2882V30.0078H10.8987V15.2882ZM16.5369 16.2167C16.5369 16.0096 16.369 15.8417 16.1619 15.8417C15.9548 15.8417 15.7869 16.0096 15.7869 16.2167C15.7869 16.4219 15.7934 16.6277 15.7999 16.8334V16.8334C15.8134 17.2632 15.8269 17.6924 15.7813 18.1143C15.7156 18.7217 15.5352 19.1767 15.1416 19.4429C14.6409 19.7817 14.27 19.9475 13.8287 20.0364C13.4279 20.1172 12.9582 20.1374 12.261 20.1412C12.2611 20.3579 12.2611 20.5315 12.2611 20.6838C12.2611 20.7571 12.261 20.8255 12.261 20.8913C12.9644 20.8877 13.5013 20.8675 13.9768 20.7717C14.5405 20.6581 15.0031 20.4422 15.5619 20.0641C16.2277 19.6137 16.4524 18.8845 16.527 18.1949C16.5783 17.7204 16.5622 17.1979 16.5483 16.7435L16.5482 16.7435C16.5424 16.5531 16.5369 16.3746 16.5369 16.2167Z" fill="#00D26A"/>
<path d="M5.89696 12.7799C6.04105 12.924 6.11637 12.8824 6.26046 12.7383C6.44991 12.5488 6.46352 12.3007 6.26046 12.0937L5.96143 11.8008C5.81734 11.6567 5.58372 11.6567 5.43963 11.8008C5.29554 11.9449 5.29554 12.1785 5.43963 12.3226L5.89696 12.7799ZM12.2656 11.8123C12.4097 11.9564 12.4097 12.19 12.2656 12.3341L11.8083 12.7914C11.6642 12.9355 11.4306 12.9355 11.2865 12.7914C11.1424 12.6473 11.1424 12.4137 11.2865 12.2696L11.7438 11.8123C11.8879 11.6682 12.1215 11.6682 12.2656 11.8123ZM15.0488 13.892C14.9007 13.752 14.6672 13.7586 14.5272 13.9066C14.3872 14.0547 14.3938 14.2883 14.5419 14.4282L15.0119 14.8725C15.16 15.0125 15.3935 15.0059 15.5335 14.8578C15.6735 14.7097 15.6669 14.4762 15.5188 14.3362L15.0488 13.892ZM4.59463 16.2644C4.59463 16.0607 4.75982 15.8955 4.9636 15.8955H5.50527C5.70904 15.8955 5.87424 16.0607 5.87424 16.2644C5.87424 16.4682 5.70904 16.6334 5.50527 16.6334H4.9636C4.75982 16.6334 4.59463 16.4682 4.59463 16.2644ZM4.61233 28.1256C4.61233 27.9219 4.77752 27.7567 4.9813 27.7567H5.52297C5.72674 27.7567 5.89194 27.9219 5.89194 28.1256C5.89194 28.3294 5.72674 28.4946 5.52297 28.4946H4.9813C4.77752 28.4946 4.61233 28.3294 4.61233 28.1256ZM12.145 26.3668C11.9412 26.3668 11.776 26.532 11.776 26.7357C11.776 26.9395 11.9412 27.1047 12.145 27.1047H12.6867C12.8904 27.1047 13.0556 26.9395 13.0556 26.7357C13.0556 26.532 12.8904 26.3668 12.6867 26.3668H12.145ZM16.2248 20.4518C16.3648 20.3037 16.5983 20.2971 16.7464 20.4371L17.2164 20.8814C17.3645 21.0214 17.3711 21.2549 17.2311 21.403C17.0912 21.5511 16.8576 21.5577 16.7095 21.4177L16.2395 20.9734C16.0914 20.8334 16.0849 20.5999 16.2248 20.4518ZM3.79137 19.5434C3.93546 19.6875 3.93546 19.9211 3.79137 20.0652L3.33404 20.5225C3.18995 20.6666 2.88489 20.6752 2.88489 20.3535C2.88489 20.1084 2.90163 19.8797 3.04572 19.7356L3.26957 19.5434C3.41366 19.3993 3.64728 19.3993 3.79137 19.5434ZM7.87775 22.4803V21.3918L7.0018 20.442C6.86365 20.2923 6.63022 20.2828 6.48043 20.421C6.33063 20.5591 6.3212 20.7925 6.45935 20.9423L7.87775 22.4803ZM10.1487 23.9788L11.3435 22.8769C11.4932 22.7388 11.7267 22.7482 11.8648 22.898C12.003 23.0478 11.9935 23.2812 11.8437 23.4194L10.238 24.9003C10.2107 24.9255 10.1805 24.9458 10.1487 24.9613V23.9788ZM10.1487 17.2661V18.004H11.0594C11.2632 18.004 11.4284 17.8388 11.4284 17.635C11.4284 17.4313 11.2632 17.2661 11.0594 17.2661H10.1487Z" fill="#86D72F"/>
</svg>

<svg xmlns="http://www.w3.org/2000/svg" width="32" height="32" fill="none"><path fill="#F37366" d="M26.83 2H5.171c-1.75 0-3.16 1.41-3.16 3.16v21.69a3.16 3.16 0 0 0 3.16 3.16H26.84A3.16 3.16 0 0 0 30 26.85V5.16A3.169 3.169 0 0 0 26.83 2Z"/><path fill="#9D5044" d="M30 19.405a.54.54 0 0 0-.52-.405.468.468 0 0 0-.483.484c0 .28-.207.52-.487.52a.509.509 0 0 1-.495-.52v-1.973c0-.313-.252-.515-.531-.515h-.01c-.28 0-.47-.23-.47-.51v-.976c0-.28-.247-.51-.527-.51h-2.189C23.58 15 23 15.58 23 16.29v1.204c0 .28-.21.51-.489.51h-.995c-.28 0-.51.23-.51.51v.985c0 .28-.229.51-.509.51H16.52a.48.48 0 0 0-.49.49c0 .28-.23.51-.51.51H2.011v5.841c0 1.74 1.408 3.16 3.156 3.16h21.678A3.158 3.158 0 0 0 30 26.85v-5.11h-.008l.008-.87v-1.465Z"/><path fill="#B35F47" d="M30 19.406a.54.54 0 0 0-.52-.406.469.469 0 0 0-.484.484c0 .28-.208.52-.488.52a.509.509 0 0 1-.496-.52v-1.973c0-.313-.252-.515-.532-.515h-.01c-.28 0-.47-.23-.47-.51v-.976c0-.28-.248-.51-.528-.51h-1.473v2.97c0 .56.421 1.02.981 1.02.557 0 1.015.455 1.02 1.01a1.024 1.024 0 0 1-1.02 1.012h-9.33c-.86 0-1.56.7-1.56 1.56 0 .76.62 1.428 1.38 1.428h6.52c1.1 0 2 .9 2 2s-.9 2-2 2h-11.2c-.17 0-.31.14-.31.31v1.7h15.36A3.16 3.16 0 0 0 30 26.85v-5.11h-.008l.008-.89v-1.444Z"/><path fill="#FF822D" d="M21.641 4.54c.36-.74 1.42-.73 1.77.01.13.28.47.39.75.24l.17-.09c.66-.35 1.44.21 1.3.94l-.04.19c-.06.3.15.59.46.63l.19.03c.74.1 1.04 1 .49 1.51l-.14.13c-.23.21-.23.56 0 .77l.14.13c.54.51.24 1.41-.5 1.51l-.2.02c-.31.04-.52.32-.46.62l.03.19c.13.73-.65 1.28-1.3.93l-.17-.09a.544.544 0 0 0-.75.24c-.36.74-1.42.73-1.77-.01a.54.54 0 0 0-.75-.24l-.17.09c-.66.35-1.44-.21-1.3-.94l.04-.19c.06-.3-.15-.59-.46-.63l-.19-.03c-.74-.1-1.04-1-.49-1.51l.14-.13c.23-.21.23-.56 0-.77l-.14-.13c-.54-.51-.24-1.41.5-1.51l.19-.02c.31-.04.52-.32.46-.62l-.03-.19c-.13-.73.65-1.28 1.3-.93l.17.09c.29.15.63.04.76-.24Z"/><path fill="#F9C23C" d="M22.501 11.98c1.955 0 3.54-1.563 3.54-3.49 0-1.927-1.585-3.49-3.54-3.49s-3.54 1.563-3.54 3.49c0 1.928 1.585 3.49 3.54 3.49Z"/><path fill="#00F397" d="M12.341 30.01v-7.658c1.01.007 2.868-.21 4.092-1.162 1.595-1.24 1.582-3 1.575-3.961l-.001-.172V15.25c0-.887-.72-1.574-1.795-1.574s-1.751.543-1.751 1.574v2.171c0 1.241-1.175 1.341-1.507 1.341h-.613v-4.491a3.496 3.496 0 1 0-6.992 0v9.442h-.632c-1.023 0-1.507-.542-1.507-1.847V17.61c0-1.195-.885-1.636-1.199-1.662v10.448c1.085.664 2.008.833 3.338.844v2.77h6.992Z"/><path fill="#00D26A" d="M7.878 15.288a.375.375 0 1 0-.75 0v9.9a.42.42 0 0 0-.02 0H5.66c-1.166 0-2.743-.24-3.657-1.597v1.145c1.129 1.032 2.64 1.202 3.657 1.202h1.468v4.072h.75V15.288Zm3.02 0a.375.375 0 0 0-.75 0v14.72h.75v-14.72Zm5.639.929a.375.375 0 0 0-.75 0c0 .205.006.41.013.616.013.43.027.86-.019 1.281-.065.608-.246 1.063-.64 1.329-.5.339-.871.505-1.312.593-.401.081-.87.101-1.568.105v.75c.703-.003 1.24-.023 1.716-.12.563-.113 1.026-.329 1.585-.707.666-.45.89-1.18.965-1.87.051-.474.035-.996.021-1.45-.006-.19-.011-.37-.011-.527Z"/><path fill="#86D72F" d="M5.897 12.78c.144.144.22.102.363-.042.19-.19.204-.437 0-.644l-.299-.293a.369.369 0 1 0-.521.522l.457.457Zm6.369-.968a.369.369 0 0 1 0 .522l-.458.457a.369.369 0 1 1-.521-.521l.457-.458a.369.369 0 0 1 .522 0Zm2.783 2.08a.369.369 0 0 0-.507.536l.47.444a.369.369 0 1 0 .507-.536l-.47-.444ZM4.595 16.264c0-.203.165-.368.369-.368h.541a.369.369 0 1 1 0 .737h-.541a.369.369 0 0 1-.37-.369Zm.017 11.862c0-.204.166-.37.37-.37h.541a.369.369 0 1 1 0 .739h-.542a.369.369 0 0 1-.369-.37Zm7.533-1.76a.369.369 0 1 0 0 .739h.542a.369.369 0 0 0 0-.738h-.542Zm4.08-5.914a.369.369 0 0 1 .521-.015l.47.444a.369.369 0 1 1-.507.537l-.47-.445a.369.369 0 0 1-.014-.521ZM3.79 19.543a.369.369 0 0 1 0 .522l-.457.457c-.144.145-.45.153-.45-.168 0-.246.018-.474.162-.618l.224-.193a.369.369 0 0 1 .521 0Zm4.087 2.937v-1.088l-.876-.95a.369.369 0 0 0-.543.5l1.419 1.538Zm2.27 1.499 1.196-1.102a.369.369 0 1 1 .5.542L10.238 24.9a.372.372 0 0 1-.09.061v-.982Zm0-6.713v.738h.911a.369.369 0 1 0 0-.738h-.91Z"/></svg>
